X: 4
T: The Rights Of Man
R: hornpipe
M: 4/4
L: 1/8
K: Edor
BA|GABd AFGF|EFGA Bdef|gage dBGB|(3AAA AB A2GA|
BBBA GBGE|DEGA Bdef|gfed Bdgf|eE{G}ED EFGA|
BdAB GBFB|EFGA (3Bcd ef|gafg efdf|cfBc (3ABA GA|
BdAB GBFB|EFGA (3Bcd ef|gfed Bdgf|e2E2 E2|]
^ga|b^gbg ef=ga|b^gbg e2f=g|a^gaf defg|afdf a2gf|
e^def gfga|b^gbg e2ba|gfed B=cdg|e2E2 E2^ga|
b^gbg ef=ga|b^geg b2ag|abaf defg|afdf a2gf|
e^def gfga|bb (3aba gfef|gfed Bdgf|e2E2 EFGA|]


Tune 83	Setting 24377

